X:1
T:Second Degree I - Etude 2
%%singleline true
%%SYMBOL_SCALE_FACTOR 2
%%BAR_OFFSET 0.3
%%score { 1 | 2 }
L:1/4
Q:1/4=80
M:4/4
I:linebreak $
K:C
V:1 treble stafflines=5
V:2 bass
V:1
 c d e f | g4 | c d e f | g4 | c g c g | c4 | g f e d |
 c4 | g f e d | c g e g | c4 | g f e d | c4 | g f e d | c g c2 |]
V:2
 C,4 | G, F, E, D, | C,4 | G, F, E, D, | C, G, C, G, | C, D, E, F, | G,4 |
 C, D, E, F, | G,4 | C, G, E, G, | C, D, E, F, | G,4 | C, D, E, F, | G,4 | C, G, C,2 |]
 